X: 1
T: Arms Dealer's Daughter, The
M: 4/4
L: 1/8
R: 
K: Emin
B2AG EedB|edBe dBAB|B2AG EBAG|DEED EGAB|
B2AG EedB|edBe dBAB|cBAd2 BAB|GABA B2 B2:|
e2dB gedg|edbg agef|e2dB ged(A|A)BcA B2 B2|
e2dB gedg|edbg agef|gfea gedB|ABcd e2 e2:|
